X: 38157
T: Sporting Paddy
R: reel
M: 4/4
K: Adorian
EA (3AAA GABG|EAAB G2 ED|EA (3AAA GABd|egge dBAG|
EA (3AAA GABG|EAAB G2 ED|EA (3AAA GABd|egge d2 ef||
ge (3ege gede|ge (3ege a2 ba|ge (3ege ged2|efge d2 ef|
g2 fg edBd|ge (3ege a2 ga|be ae ge d2|efge dBAG||

